src/objects/writing/1F58A.svg

<?xml version="1.0" encoding="UTF-8"?>
<svg id="emoji" xmlns="http://www.w3.org/2000/svg" viewBox="0 0 72 72">
  <g id="grid">
    <path d="m68,4v64H4V4h64M72,0H0v72h72V0Z" fill="#b3b3b3"/>
    <path d="m12.923,10.9583h46.1539c1.0621,0,1.9231.861,1.9231,1.9231h0v46.1538c0,1.0621-.861,1.9231-1.9231,1.9231H12.9231c-1.0621,0-1.9231-.861-1.9231-1.9231h0V12.8813c0-1.062.861-1.923,1.923-1.923h0Z" fill="none" stroke="#00a5ff" stroke-miterlimit="10" stroke-width=".1"/>
    <rect x="16" y="4" width="40" height="64" rx="2.2537" ry="2.2537" fill="none" stroke="#00a5ff" stroke-miterlimit="10" stroke-width=".1"/>
    <rect x="4" y="16" width="64" height="40" rx="2.2537" ry="2.2537" fill="none" stroke="#00a5ff" stroke-miterlimit="10" stroke-width=".1"/>
    <circle cx="36" cy="36" r="29" fill="none" stroke="#00a5ff" stroke-miterlimit="10" stroke-width=".1"/>
  </g>
  <g id="color">
    <polygon points="18.6374 51.1068 23.6734 56.1428 18.3138 58.1855 16.6149 56.3855 18.6374 51.1068" fill="#9b9b9a"/>
    <path d="m18.033,59.0699c7.3107-1.7183,14.4552-7.1937,18.0334-10.0996,5.2841-4.2911,15.6814-15.0196,22.0242-21.6934,2.9813-3.137,3.1752-7.8102.4421-10.5434h0s-.4873-.4873-.4873-.4873h0c-2.7332-2.7333-7.4063-2.5395-10.5434.4419-6.6738,6.3428-17.4023,16.7401-21.6934,22.0243-2.7631,3.4024-7.8498,10.0295-9.8201,16.9581-.1883.662.0198,1.3745.5065,1.8612l1.5382,1.5382" fill="#d0cfce" stroke="#d0cfce" stroke-miterlimit="10" stroke-width="2"/>
  </g>
  <g id="line">
    <line x1="16.8875" y1="57.9244" x2="14.465" y2="60.347" fill="none" stroke="#000" stroke-linecap="round" stroke-linejoin="round" stroke-width="2"/>
    <line x1="47.9151" y1="17.1526" x2="57.5658" y2="26.8034" fill="none" stroke="#000" stroke-linecap="round" stroke-linejoin="round" stroke-width="2"/>
    <path d="m44.7513,14.022h0c-1.1564-1.1563-3.1433-1.0441-4.4381.2507l-12.5036,12.5036" fill="none" stroke="#000" stroke-linecap="round" stroke-linejoin="round" stroke-width="2"/>
    <path d="m18.033,59.0699c7.3107-1.7183,14.4552-7.1937,18.0334-10.0996,5.2841-4.2911,15.6814-15.0196,22.0242-21.6934,2.9813-3.137,3.1752-7.8102.4421-10.5434h0s-.4873-.4873-.4873-.4873h0c-2.7332-2.7333-7.4063-2.5395-10.5434.4419-6.6738,6.3428-17.4023,16.7401-21.6934,22.0243-2.9058,3.5781-8.3813,10.7225-10.0996,18.0333l2.3242,2.3242" fill="none" stroke="#000" stroke-linecap="round" stroke-linejoin="round" stroke-width="2"/>
    <line x1="24.4737" y1="55.747" x2="18.7879" y2="50.061" fill="none" stroke="#000" stroke-linecap="round" stroke-linejoin="round" stroke-width="1.9613"/>
  </g>
</svg>

<svg id="emoji" viewBox="0 0 72 72" xmlns="http://www.w3.org/2000/svg">
  <g id="grid">
    <path fill="#b3b3b3" d="M68,4V68H4V4H68m4-4H0V72H72V0Z"/>
    <path fill="none" stroke="#00a5ff" stroke-miterlimit="10" stroke-width="0.1" d="M12.923,10.9583H59.0769A1.9231,1.9231,0,0,1,61,12.8814V59.0352a1.9231,1.9231,0,0,1-1.9231,1.9231H12.9231A1.9231,1.9231,0,0,1,11,59.0352V12.8813A1.923,1.923,0,0,1,12.923,10.9583Z"/>
    <rect x="16" y="4" rx="2.2537" width="40" height="64" fill="none" stroke="#00a5ff" stroke-miterlimit="10" stroke-width="0.1"/>
    <rect x="16" y="4" rx="2.2537" width="40" height="64" transform="translate(72) rotate(90)" fill="none" stroke="#00a5ff" stroke-miterlimit="10" stroke-width="0.1"/>
    <circle cx="36" cy="36" r="29" fill="none" stroke="#00a5ff" stroke-miterlimit="10" stroke-width="0.1"/>
  </g>
  <g id="color">
    <polygon fill="#9b9b9a" stroke="none" points="18.407,49.7727 24.8174,56.738 17.9312,58.7066 15.515,56.3233"/>
    <path fill="#d0cfce" stroke="#d0cfce" stroke-miterlimit="10" stroke-width="2" d="M18.033,59.0699 c7.3107-1.7183,14.4552-7.1937,18.0334-10.0996c5.2841-4.2911,15.6814-15.0196,22.0242-21.6934 c2.9813-3.137,3.1752-7.8102,0.4421-10.5434l-0.0001-0.0001l-0.4873-0.4872l-0.0001-0.0001 c-2.7332-2.7332-7.4063-2.5394-10.5434,0.442c-6.6738,6.3428-17.4023,16.7401-21.6934,22.0243 c-2.7631,3.4024-7.8498,10.0295-9.8201,16.9581c-0.1883,0.662,0.0198,1.3745,0.5065,1.8612L18.033,59.0699"/>
  </g>
  <g id="hair"/>
  <g id="skin"/>
  <g id="skin-shadow"/>
  <g id="line">
    <line x1="16.8875" x2="14.465" y1="57.9244" y2="60.347" fill="none" stroke="#000000" stroke-linecap="round" stroke-linejoin="round" stroke-miterlimit="10" stroke-width="2"/>
    <line x1="47.9151" x2="57.5658" y1="17.1526" y2="26.8034" fill="none" stroke="#000000" stroke-linecap="round" stroke-linejoin="round" stroke-miterlimit="10" stroke-width="2"/>
    <path fill="none" stroke="#000000" stroke-linecap="round" stroke-linejoin="round" stroke-miterlimit="10" stroke-width="2" d="M44.7513,14.022L44.7513,14.022c-1.1564-1.1563-3.1433-1.0441-4.4381,0.2507L27.8096,26.7763"/>
    <path fill="none" stroke="#000000" stroke-linecap="round" stroke-linejoin="round" stroke-miterlimit="10" stroke-width="2" d="M18.033,59.0699c7.3107-1.7183,14.4552-7.1937,18.0334-10.0996c5.2841-4.2911,15.6814-15.0196,22.0242-21.6934 c2.9813-3.137,3.1752-7.8102,0.4421-10.5434l-0.0001-0.0001l-0.4873-0.4872l-0.0001-0.0001 c-2.7332-2.7332-7.4063-2.5394-10.5434,0.442c-6.6738,6.3428-17.4023,16.7401-21.6934,22.0243 c-2.9058,3.5781-8.3813,10.7225-10.0996,18.0333L18.033,59.0699"/>
    <line x1="24.7862" x2="18.7879" y1="56.0595" y2="50.061" fill="none" stroke="#000000" stroke-linecap="round" stroke-linejoin="round" stroke-miterlimit="10" stroke-width="1.9613"/>
  </g>
</svg>
